Catalina-light/actions/16/color-mode-black-white.svg

<!DOCTYPE svg>
<svg version="1.1" viewBox="0 0 16 16" xmlns="http://www.w3.org/2000/svg">
<defs>
<style id="current-color-scheme" type="text/css">.ColorScheme-Text {
                color:#363636;
            }</style>
</defs>
<path class="ColorScheme-Text" d="m6 2c-0.56243 1.9627-1.7028 3.6747-2.819 5.3578-0.64227 1.0072-1.3722 2.1535-1.1348 3.4054 0.25904 1.7615 1.8918 3.1314 3.6462 3.2257 1.7979 0.167 3.6551-1.0044 4.156-2.7622 0.264-0.8208 0.1661-1.6839-0.21643-2.4512-0.76767-1.547-1.8905-2.8856-2.6692-4.428-0.39056-0.75087-0.71931-1.5368-0.96267-2.3476zm2.7676 6.2246c0.39592 0.66587 0.74178 1.4131 0.65017 2.2088-0.10144 1.582-1.51 2.8867-3.0671 3.0048-0.83275 0.0856-1.6917-0.141-2.3741-0.6257 1.8249 0.4459 3.8997-0.5563 4.6029-2.3153 0.30267-0.71534 0.34416-1.5166 0.18813-2.2726z" fill="currentColor"/>
<path class="ColorScheme-Text" d="m10 1c-0.166 0.569-0.38886 1.1249-0.63086 1.6699-0.50617 1.1093-1.119 2.0511-1.6914 2.9219 0.0975 0.15746 0.18779 0.2919 0.28516 0.44336 0.01328-0.02067 0.02784-0.0439 0.04102-0.06446 0.658-0.996 1.4161-2.1399 1.9961-3.5059 0.58 1.366 1.3381 2.5099 1.9961 3.5059 0.446 0.694 0.9501 1.4538 1.2871 2.2988 0.09 0.295 0.1435 0.60111 0.1445 0.91211 0 1.807-1.5337 3.2735-3.4277 3.2735-0.25267 0-0.49731-0.0306-0.73437-0.0801-0.11855 0.1605-0.2482 0.3122-0.39063 0.4531 0.35902 0.101 0.73174 0.1719 1.125 0.1719 2.209 0 4-1.7104 4-3.8184 0-0.058-0.0116-0.11678-0.0156-0.17578l0.0156-0.00586c-4e-3 -0.025-0.0165-0.05312-0.0215-0.07812-0.186-1.704-2.1146-3.552-3.3476-6.252-0.242-0.545-0.4649-1.1009-0.6309-1.6699z" fill="currentColor"/>
</svg>

<!DOCTYPE svg>
<svg xmlns="http://www.w3.org/2000/svg" version="1.1" viewBox="0 0 16 16">
    <defs>
        <style id="current-color-scheme" type="text/css">
            .ColorScheme-Text {
                color:#363636;
            }
        </style>
    </defs>
    <path class="ColorScheme-Text" style="fill:currentColor; fill-opacity:1; stroke:none" d="M 6 2 C 5.43757 3.96274 4.29721 5.67472 3.18098 7.3578 C 2.53871 8.36496 1.80873 9.51131 2.04615 10.7632 C 2.30519 12.5247 3.93793 13.8946 5.69231 13.9889 C 7.49024 14.1559 9.34738 12.9845 9.8483 11.2267 C 10.1123 10.4059 10.0144 9.54278 9.63187 8.77555 C 8.8642 7.22857 7.74139 5.88993 6.96267 4.34759 C 6.57211 3.59672 6.24336 2.81082 6 2 Z M 8.76758 8.22461 C 9.1635 8.89048 9.50936 9.63772 9.41775 10.4334 C 9.31631 12.0154 7.9078 13.3201 6.35062 13.4382 C 5.51787 13.5238 4.65896 13.2972 3.97656 12.8125 C 5.80143 13.2584 7.8763 12.2562 8.57945 10.4972 C 8.88212 9.78186 8.92361 8.98055 8.76758 8.22461 Z"/>
    <path class="ColorScheme-Text" style="fill:currentColor; fill-opacity:1; stroke:none" d="M 10 1 C 9.834 1.569 9.61114 2.12492 9.36914 2.66992 C 8.86297 3.77922 8.25019 4.72103 7.67773 5.5918 C 7.77523 5.74926 7.86552 5.8837 7.96289 6.03516 C 7.97617 6.01449 7.99073 5.99126 8.00391 5.9707 C 8.66191 4.9747 9.42 3.83084 10 2.46484 C 10.58 3.83084 11.3381 4.9747 11.9961 5.9707 C 12.4421 6.6647 12.9462 7.42453 13.2832 8.26953 C 13.3732 8.56453 13.4267 8.87064 13.4277 9.18164 C 13.4277 10.9886 11.894 12.4551 10 12.4551 C 9.74733 12.4551 9.50269 12.4245 9.26563 12.375 C 9.14708 12.5355 9.01743 12.6872 8.875 12.8281 C 9.23402 12.9291 9.60674 13 10 13 C 12.209 13 14 11.2896 14 9.18164 C 14 9.12364 13.9884 9.06486 13.9844 9.00586 L 14 9 C 13.996 8.975 13.9835 8.94688 13.9785 8.92188 C 13.7925 7.21788 11.8639 5.36992 10.6309 2.66992 C 10.3889 2.12492 10.166 1.569 10 1 Z"/>
</svg>
